app/assets/images/Contenido/Venta.svg

<svg fill="none" height="58" viewBox="0 0 58 58" width="58" xmlns="http://www.w3.org/2000/svg"><path d="m34.4382 51.7167c-.9264.9264-2.0743 1.3896-3.4438 1.3896-1.3694 0-2.5173-.4632-3.4437-1.3896l-21.2667-21.2667c-.44306-.443-.79589-.9666-1.0585-1.5708s-.39311-1.2486-.3915-1.9333v-17.27919c0-1.32917.47367-2.46742 1.421-3.41475s2.08478-1.42019 3.41233-1.41858h17.27917c.6847 0 1.3292.1313 1.9333.39392.6042.26261 1.1278.61463 1.5709 1.05608l21.2666 21.32712c.9264.9264 1.3896 2.0646 1.3896 3.4147s-.4632 2.4876-1.3896 3.4123zm-18.7292-32.3833c1.0069 0 1.8632-.3529 2.5689-1.0585.7057-.7057 1.0577-1.5612 1.0561-2.5665 0-1.007-.3528-1.8633-1.0585-2.5689-.7057-.7057-1.5612-1.0577-2.5665-1.0561-1.0069 0-1.8633.3528-2.5689 1.0585-.7057.7056-1.0577 1.5611-1.0561 2.5665 0 1.0069.3528 1.8632 1.0585 2.5689s1.5612 1.0577 2.5665 1.0561z" fill="#222"/></svg>

<svg width="58" height="58" viewBox="0 0 58 58" fill="none" xmlns="http://www.w3.org/2000/svg">
<path d="M34.4382 51.7167C33.5118 52.6431 32.3639 53.1063 30.9944 53.1063C29.625 53.1063 28.4771 52.6431 27.5507 51.7167L6.284 30.45C5.84094 30.007 5.48811 29.4834 5.2255 28.8792C4.96289 28.275 4.83239 27.6306 4.834 26.9459V9.66671C4.834 8.33754 5.30767 7.19929 6.255 6.25196C7.20233 5.30463 8.33978 4.83177 9.66733 4.83338H26.9465C27.6312 4.83338 28.2757 4.96468 28.8798 5.2273C29.484 5.48991 30.0076 5.84193 30.4507 6.28338L51.7173 27.6105C52.6437 28.5369 53.1069 29.6751 53.1069 31.0252C53.1069 32.3753 52.6437 33.5128 51.7173 34.4375L34.4382 51.7167ZM15.709 19.3334C16.7159 19.3334 17.5722 18.9805 18.2779 18.2749C18.9836 17.5692 19.3356 16.7137 19.334 15.7084C19.334 14.7014 18.9812 13.8451 18.2755 13.1395C17.5698 12.4338 16.7143 12.0818 15.709 12.0834C14.7021 12.0834 13.8457 12.4362 13.1401 13.1419C12.4344 13.8475 12.0824 14.703 12.084 15.7084C12.084 16.7153 12.4368 17.5716 13.1425 18.2773C13.8482 18.983 14.7037 19.335 15.709 19.3334Z" fill="#222222"/>
</svg>
